X: 43306
T: Woods No.1
R: reel
M: 4/4
K: Ddorian
|:DA,A, D2 C EC|DDFD ~E2 DC|~A,3 D EDCD|EG~G2 GECG,|
A,DDC ~E2 DC|DDFD ~E2 DC|~A,3 D EDCD|EGAG cAGE:|
|:Addc d2 cd|ADDD FAdA|~G3 D EDCD|EA,A,B, CDEG|
Addc e2 dc|dAAA dfaf|ec~c2 AF~F2|1 BGdc BGdc:|2 BGdc BGGF||

